packages/ffe-icons/icons/filled/lg/work.svg

<svg xmlns="http://www.w3.org/2000/svg" height="40" viewBox="0 -960 960 960" width="40"><path d="M162.565-140.001q-25.788 0-44.176-18.388t-18.388-44.176v-434.87q0-25.788 18.388-44.176t44.176-18.388h177.436v-77.435q0-25.788 18.388-44.175 18.388-18.388 44.176-18.388h154.87q25.788 0 44.176 18.388 18.388 18.387 18.388 44.175v77.435h177.436q25.788 0 44.176 18.388t18.388 44.176v434.87q0 25.788-18.388 44.176t-44.176 18.388h-634.87Zm227.691-559.998h179.488v-77.435q0-4.615-3.847-8.462-3.846-3.846-8.462-3.846h-154.87q-4.616 0-8.462 3.846-3.847 3.847-3.847 8.462v77.435Z"/></svg>

<svg xmlns="http://www.w3.org/2000/svg" viewBox="0 -960 960 960" width="32" height="32"><path d="M162.57-140q-25.79 0-44.18-18.39T100-202.57v-434.86q0-25.79 18.39-44.18T162.57-700H340v-77.43q0-25.79 18.39-44.18T402.57-840h154.86q25.79 0 44.18 18.39T620-777.43V-700h177.43q25.79 0 44.18 18.39T860-637.43v434.86q0 25.79-18.39 44.18T797.43-140H162.57Zm227.69-560h179.48v-77.43q0-4.62-3.84-8.47-3.85-3.84-8.47-3.84H402.57q-4.62 0-8.47 3.84-3.84 3.85-3.84 8.47V-700Z"/></svg>
